X:12
T:Hornpipe . RDO.12
M:4/4
L:1/8
Q:1/2=90
S:Robert D. Owen MS,Indiana,1826.
R:.Hornpipe
O:Indiana,USA
A:New Harmony
Z:vmp.Chris Partington
K:D
FG|ABAG FEDE|F2A2A2Bc|dcde dfed|e2a2a2FG|!
ABAG FEDE|F2A2A2Bc|dcdf edef|d2d2d2:|!
|:cd efed cdef|g2e2e2de|fgfe defg|a2f2f2dA|!
BGeB cAec|dAfd ecag|fefg afge|d2d2d2:|

